src/pos-icons/phone-classic-off.svg

<svg height="24" viewBox="0 0 24 24" width="24" xmlns="http://www.w3.org/2000/svg"><path d="m12 3c4.53 0 8.65 1.78 11.7 4.67.18.18.3.42.3.7s-.11.53-.29.71l-2.48 2.48c-.18.18-.43.29-.73.29-.25 0-.5-.1-.68-.28-.82-.73-1.69-1.36-2.67-1.85-.33-.16-.56-.51-.56-.9v-3.1c-1.45-.47-3-.72-4.59-.72-1.56 0-3.07.24-4.5.69l-1.56-1.58c1.88-.71 3.92-1.11 6.06-1.11m-3 4h2v2h2v-2h2v3s6 5 6 8v1.18l-12-12zm-8-2.73 1.28-1.27 19.22 19.22-1.27 1.28-1.5-1.5h-15.73v-4c0-2.14 3.05-5.29 4.8-6.93l-1.21-1.21c-.88.47-1.69 1.04-2.41 1.72-.18.17-.43.28-.68.28-.3 0-.55-.11-.73-.29l-2.48-2.48c-.18-.18-.29-.43-.29-.71s.11-.53.29-.71c.706-.67 2.29-1.82 2.29-1.82zm7 11.73c0 2.21 1.79 4 4 4 1.29 0 2.44-.61 3.17-1.56l-1.07-1.08c-.45.69-1.22 1.14-2.1 1.14-1.38 0-2.5-1.12-2.5-2.5 0-.88.45-1.65 1.14-2.09l-1.08-1.08c-.95.73-1.56 1.88-1.56 3.17z"/></svg>

<?xml version="1.0" encoding="UTF-8"?><!DOCTYPE svg PUBLIC "-//W3C//DTD SVG 1.1//EN" "http://www.w3.org/Graphics/SVG/1.1/DTD/svg11.dtd"><svg xmlns="http://www.w3.org/2000/svg" xmlns:xlink="http://www.w3.org/1999/xlink" version="1.1" id="mdi-phone-classic-off" width="24" height="24" viewBox="0 0 24 24"><path d="M12 3C16.53 3 20.65 4.78 23.7 7.67C23.88 7.85 24 8.09 24 8.37C24 8.65 23.89 8.9 23.71 9.08L21.23 11.56C21.05 11.74 20.8 11.85 20.5 11.85C20.25 11.85 20 11.75 19.82 11.57C19 10.84 18.13 10.21 17.15 9.72C16.82 9.56 16.59 9.21 16.59 8.82V5.72C15.14 5.25 13.59 5 12 5C10.44 5 8.93 5.24 7.5 5.69L5.94 4.11C7.82 3.4 9.86 3 12 3M9 7H11V9H13V7H15V10C15 10 21 15 21 18V19.18L9 7.18V7M1 4.27L2.28 3L21.5 22.22L20.23 23.5L18.73 22H3V18C3 15.86 6.05 12.71 7.8 11.07L6.59 9.86C5.71 10.33 4.9 10.9 4.18 11.58C4 11.75 3.75 11.86 3.5 11.86C3.2 11.86 2.95 11.75 2.77 11.57L.29 9.09C.11 8.91 0 8.66 0 8.38C0 8.1 .11 7.85 .29 7.67C.996 7 2.58 5.85 2.58 5.85L1 4.27M8 16C8 18.21 9.79 20 12 20C13.29 20 14.44 19.39 15.17 18.44L14.1 17.36C13.65 18.05 12.88 18.5 12 18.5C10.62 18.5 9.5 17.38 9.5 16C9.5 15.12 9.95 14.35 10.64 13.91L9.56 12.83C8.61 13.56 8 14.71 8 16Z" /></svg>
